svgs/solid/user-doctor-hair-long.svg

<svg xmlns="http://www.w3.org/2000/svg" viewBox="0 0 448 512"><!--! Font Awesome Pro 6.2.0 by @fontawesome - https://fontawesome.com License - https://fontawesome.com/license (Commercial License) Copyright 2022 Fonticons, Inc. --><path d="M304 128c0-11.4-2.4-22.2-6.7-32H296c-20.5 0-38.7-9.6-50.4-24.5C231.9 95.7 205.8 112 176 112H145.6c-1 5.2-1.6 10.5-1.6 16v16c0 44.2 35.8 80 80 80s80-35.8 80-80V128zM96 128C96 57.3 153.3 0 224 0s128 57.3 128 128v11c0 33.9 13.5 66.5 37.5 90.5l3.9 3.9c4.2 4.2 6.6 10 6.6 16c0 12.5-10.1 22.6-22.6 22.6H224 70.6C58.1 272 48 261.9 48 249.4c0-6 2.4-11.8 6.6-16l3.9-3.9c24-24 37.5-56.6 37.5-90.5V128zM288 320v42c-27.6 7.1-48 32.2-48 62v40c0 8.8 7.2 16 16 16h16c8.8 0 16-7.2 16-16s-7.2-16-16-16V424c0-17.7 14.3-32 32-32s32 14.3 32 32v24c-8.8 0-16 7.2-16 16s7.2 16 16 16h16c8.8 0 16-7.2 16-16V424c0-29.8-20.4-54.9-48-62V323.4c73.1 15.3 128 80.2 128 157.8c0 17-13.8 30.7-30.7 30.7H30.7C13.8 512 0 498.2 0 481.3c0-77.7 54.9-142.5 128-157.8v46.9c-23.1 6.9-40 28.3-40 53.7c0 30.9 25.1 56 56 56s56-25.1 56-56c0-25.4-16.9-46.8-40-53.7V320l1.3 0H286.7l1.3 0zM168 424c0 13.3-10.7 24-24 24s-24-10.7-24-24s10.7-24 24-24s24 10.7 24 24z"/></svg>

<svg xmlns="http://www.w3.org/2000/svg" viewBox="0 0 448 512"><!--! Font Awesome Pro 6.1.2 by @fontawesome - https://fontawesome.com License - https://fontawesome.com/license (Commercial License) Copyright 2022 Fonticons, Inc. --><path d="M96 128C96 57.31 153.3 0 224 0C294.7 0 352 57.31 352 128V138.1C352 172.9 365.5 205.5 389.5 229.5L393.4 233.4C397.6 237.6 400 243.4 400 249.4C400 261.9 389.9 272 377.4 272H70.63C58.13 272 47.1 261.9 47.1 249.4C47.1 243.4 50.38 237.6 54.63 233.4L58.51 229.5C82.51 205.5 95.1 172.9 95.1 138.1L96 128zM297.3 96H296C275.5 96 257.3 86.4 245.6 71.46C231.9 95.67 205.8 112 176 112H145.6C144.6 117.2 144 122.5 144 128V144C144 188.2 179.8 224 224 224C268.2 224 304 188.2 304 144V128C304 116.6 301.6 105.8 297.3 96zM288 362C260.4 369.1 240 394.2 240 424V464C240 472.8 247.2 480 256 480H272C280.8 480 288 472.8 288 464C288 455.2 280.8 448 272 448V424C272 406.3 286.3 392 304 392C321.7 392 336 406.3 336 424V448C327.2 448 320 455.2 320 464C320 472.8 327.2 480 336 480H352C360.8 480 368 472.8 368 464V424C368 394.2 347.6 369.1 320 362V323.4C393.1 338.8 448 403.6 448 481.3C448 498.2 434.2 512 417.3 512H30.72C13.75 512 0 498.2 0 481.3C0 403.6 54.89 338.8 128 323.4V370.3C104.9 377.2 88 398.6 88 424C88 454.9 113.1 480 144 480C174.9 480 200 454.9 200 424C200 398.6 183.1 377.2 160 370.3V320L161.3 320H286.7L288 320V362zM168 424C168 437.3 157.3 448 144 448C130.7 448 120 437.3 120 424C120 410.7 130.7 400 144 400C157.3 400 168 410.7 168 424z"/></svg>
